X: 36935
T: Short Grass, The
R: jig
M: 6/8
K: Bminor
|:dAF dAF|FEF DFA|dAF dAF|E2e efe|
dAF dAF|FEF DFA|fba f2e|1 dBB B2c:|2 dBB B2d|
|:fab afe|f2d dfa|~b3 baf|afe e2d|
fab afe|f2d def|g2e f2e|1 dBA B2d:|2 dBB B3||

